!! 00026] TT[TB
!! Eigene Aufnahme, Guangzhou, 5.5.87
!!!OTL: Xi kan gongshe nianjing hao
!!!ARE: Asia, China,ÿGuangdong, Jiaoling
!! Ethnic Group: Han, ?)
!! II, 369
!!!SCT: C0933
!!!YEM: Copyright 1995, estate of Helmut Schaffrath.
**kern
*ICvox
*Ivox
!! Mixed meters:  3/4; 4/4
*M3/4
*k[]
*C:
{8e
8a
2a
=1
8cc
8a
2ee}
=2
{16cc
16dd
8a
32a
32g
32a
32g
4a
8e
=3
8cc
4cc
8cc
4ee}
=4
{8a
8ee
2ee
=5
8dd
8a
32a
32g
32a
32g
4a
8e}
=6
{8e
8ee
2ee
=7
8cc
8cc
32a
32g
32a
32g
4a
8e}
=8
{16a
16cc
8e
2e
=9
8ee
8ee
2ee}
=10
{8a
8a
32a
32g
32a
32g
4a
8e
=11
8cc
8cc
32a
32g
32a
32g
4a
8e}
=12
*M4/4
{8ee
8ee
8a
4a
16a
16cc
4ee
=13
*M3/4
8a
8a
2ee}
=14
*M4/4
{8ee
8a
4.cc
8cc
4ee
=15
*M3/4
8ee
8a
32a
32g
32a
32g
4a
8e}
=16
{8cc
8cc
32a
32g
32a
32g
4a
8e}
==
!!!AGN: Shange, Changtan Shange. Xin minge
!! Der Saenger Lai Yuan Shen war frueher selbst Landarbeiter. Heute ist
!!    er Student an der Guangzhouer Musikhochschule. Aufgenommen am 5.5.87
!!    Einige Verzierungen und Atemzeichen. Phrasierung ueberpruefen!
!!    +++ Voellig anders gestaltet. Aber der Rahmen stimmt noch. +++
!!    +++Hier wird ein weiteres Lied "Shange,Haozi" im naechsten Cut gesungen.
!!    +++Numerierung erneut falsch.
!!!ONB: ESAC (Essen Associative Code) Database: CHINA
!!!AMT: irregular
!!!AIN: vox
!!!EED: Helmut Schaffrath
!!!EEV: 1.0
*-
